assets/img/braze_icons/marker-pin-01.svg

<svg fill="none" height="24" viewBox="0 0 24 24" width="24" xmlns="http://www.w3.org/2000/svg"><path clip-rule="evenodd" d="m3 10c0-4.97056 4.02944-9 9-9 4.9706 0 9 4.02944 9 9 0 2.5262-1.1468 4.7402-2.7077 6.767-1.3043 1.6936-2.974 3.3488-4.6417 5.002l-.0011.0012c-.315.3123-.63.6245-.9424.9369-.3905.3905-1.0237.3905-1.4142 0-.3126-.3126-.6285-.6258-.9437-.9383-1.66774-1.6532-3.33715-3.3082-4.64148-5.0018-1.56089-2.0268-2.70772-4.2408-2.70772-6.767zm12 0c0 1.6569-1.3431 3-3 3s-3-1.3431-3-3c0-1.65685 1.3431-3 3-3s3 1.34315 3 3z" fill="#801ed7" fill-rule="evenodd"/></svg>

<svg width="24" height="24" viewBox="0 0 24 24" fill="none" xmlns="http://www.w3.org/2000/svg">
<path fill-rule="evenodd" clip-rule="evenodd" d="M3 10C3 5.02944 7.02944 1 12 1C16.9706 1 21 5.02944 21 10C21 12.5262 19.8532 14.7402 18.2923 16.767C16.988 18.4606 15.3183 20.1158 13.6506 21.769L13.6495 21.7702C13.3345 22.0825 13.0195 22.3947 12.7071 22.7071C12.3166 23.0976 11.6834 23.0976 11.2929 22.7071C10.9803 22.3945 10.6644 22.0813 10.3492 21.7688C8.68146 20.1156 7.01205 18.4606 5.70772 16.767C4.14683 14.7402 3 12.5262 3 10ZM15 10C15 11.6569 13.6569 13 12 13C10.3431 13 9 11.6569 9 10C9 8.34315 10.3431 7 12 7C13.6569 7 15 8.34315 15 10Z" fill="#801ED7"/>
</svg>
